X:1
T:Title
%%score { ( 1 3 ) | ( 2 4 ) }
L:1/8
M:4/4
K:G
V:1 treble nm="Grand Piano"
V:3 treble 
V:2 bass 
V:4 bass 
V:1
 z4 z2[Q:1/4=92] [DGB]>[CDA] | [B,DG]>[CDA] [DGB]>[B,DG][K:bass] [G,CE]<[G,B,D] [D,G,B,]>[G,B,D] | %2
[M:3/4] [G,CE]>[K:treble][CEG] [CDF]>[CDA] [B,DG]2 |[M:1/4] [DGB]>[CDA] | %4
[M:4/4] [B,DG]>[CDA] [DGB]>[B,DG][K:bass] [G,CE]<[G,B,D] [D,G,B,]>[G,B,D] | %5
[M:3/4] [G,CE]>[K:treble][CEG] [CDF]>[CDA] [B,DG]2 |[M:1/4] B>c |[M:4/4] d>d e>d d<B A>G | %8
[M:3/4] [Fc]>[Fc] [Fc]>[Fc] [CDF]2 |[M:1/4] [CDF]>[CDF] | %10
[M:4/4] [B,FB]>[B,FB] [B,FB]>[B,FA] [B,FA]<[B,EG] [B,EG]>[B,GB] | %11
[M:3/4] [^CGA]>[CGA] [CGA]>[CGA] [=CFA]2 |[M:1/4] [DFB]>[CDA] | %13
[M:4/4] [B,DG]>[CDA] [DGB]>[B,DG][K:bass] [G,CE]<[G,B,D] [D,G,B,]>[K:treble][G,B,D] | %14
 [B,DG]>[B,DG] [B,DG]>[DGB] d2 e>d | d>B B>A A<G B>[DA] | [EA]>[EG] [EG]>[EG] [CE]<[EG] [DF]>[CE] | %17
 z4 d4- | d4 z4 | A8 |[M:2/4] [B,DG]4 |] %21
V:2
 z4 z2 G,,>G,, | G,,>G,, G,,>G,, G,,<A,, G,,>G,, |[M:3/4] C,>C, D,>D, G,,2 |[M:1/4] G,,>G,, | %4
[M:4/4] G,,>G,, G,,>G,, G,,<G,, G,,>G,, |[M:3/4] C,>C, D,>D, G,,2 | %6
[M:1/4][K:treble] [G,DG]>[G,A,G] | %7
[M:4/4] [G,B,G]>[G,B,G] [G,CG]>[G,B,G] [G,B,G]<[G,DG][K:bass] [G,CD]>[G,B,] | %8
[M:3/4] [D,A,]>[D,A,] [D,A,]>[D,A,] D,2 |[M:1/4] D,>D, |[M:4/4] ^D,>D, D,>D, D,<E, E,>E, | %11
[M:3/4] A,,>A,, A,,>E, D,2 |[M:1/4] D,>D, |[M:4/4] G,,>G,, G,,>G,, G,,<G,, G,,>G,, | %14
 G,,>G,, G,,>G,,[K:treble] [G,B,G]2 [G,CG]>[G,B,G] | %15
 [G,B,G]>[G,DG] [G,DG]>[G,CD] [G,CD]<[G,B,D] [G,DG]>[K:bass]B,, | %16
 [C,C]>[C,C] [C,C]>[C,C] [C,G,]<[C,C] [C,G,]>[C,G,] | %17
 [G,,G,]>[G,,G,][K:treble] [G,B,D]>[G,DG] [G,B,G][K:bass][G,B,][D,A,][F,C] | [G,B,]4 z DB,D | D8 | %20
[M:2/4] G,,4 |] %21
V:3
 x8 | x4[K:bass] x4 |[M:3/4] x3/2[K:treble] x9/2 |[M:1/4] x2 |[M:4/4] x4[K:bass] x4 | %5
[M:3/4] x3/2[K:treble] x9/2 |[M:1/4] x2 |[M:4/4] x8 |[M:3/4] x6 |[M:1/4] x2 |[M:4/4] x8 | %11
[M:3/4] x6 |[M:1/4] x2 |[M:4/4] x4[K:bass] x7/2[K:treble] x/ | x8 | x8 | x8 | %17
 [B,D]>[B,D] G>B z GFA | G4 z BGB | z FFF F3 [B,DG] |[M:2/4] x4 |] %21
V:4
 x8 | x8 |[M:3/4] x6 |[M:1/4] x2 |[M:4/4] x8 |[M:3/4] x6 |[M:1/4][K:treble] x2 | %7
[M:4/4] x6[K:bass] x2 |[M:3/4] x6 |[M:1/4] x2 |[M:4/4] x8 |[M:3/4] x6 |[M:1/4] x2 |[M:4/4] x8 | %14
 x4[K:treble] x4 | x15/2[K:bass] x/ | x8 | x2[K:treble] x3[K:bass] x3 | x8 | z D,D,D, D,3 G,, | %20
[M:2/4] x4 |] %21

